snap/Costumes/parrot-a.svg

<?xml version="1.0" encoding="UTF-8" standalone="no"?>
<svg
   xmlns:dc="http://purl.org/dc/elements/1.1/"
   xmlns:cc="http://creativecommons.org/ns#"
   xmlns:rdf="http://www.w3.org/1999/02/22-rdf-syntax-ns#"
   xmlns:svg="http://www.w3.org/2000/svg"
   xmlns="http://www.w3.org/2000/svg"
   xmlns:sodipodi="http://sodipodi.sourceforge.net/DTD/sodipodi-0.dtd"
   xmlns:inkscape="http://www.inkscape.org/namespaces/inkscape"
   version="1.1"
   width="175"
   height="205"
   id="svg877"
   sodipodi:docname="parrot-a.svg"
   inkscape:version="0.92.2 5c3e80d, 2017-08-06">
  <metadata
     id="metadata883">
    <rdf:RDF>
      <cc:Work
         rdf:about="">
        <dc:format>image/svg+xml</dc:format>
        <dc:type
           rdf:resource="http://purl.org/dc/dcmitype/StillImage" />
        <dc:title></dc:title>
      </cc:Work>
    </rdf:RDF>
  </metadata>
  <defs
     id="defs881" />
  <sodipodi:namedview
     pagecolor="#ffffff"
     bordercolor="#666666"
     borderopacity="1"
     objecttolerance="10"
     gridtolerance="10"
     guidetolerance="10"
     inkscape:pageopacity="0"
     inkscape:pageshadow="2"
     inkscape:window-width="973"
     inkscape:window-height="504"
     id="namedview879"
     showgrid="false"
     units="px"
     fit-margin-top="0"
     fit-margin-left="0"
     fit-margin-right="0"
     fit-margin-bottom="0"
     inkscape:zoom="1"
     inkscape:cx="95.37028"
     inkscape:cy="97.373503"
     inkscape:window-x="-2"
     inkscape:window-y="-2"
     inkscape:window-maximized="0"
     inkscape:current-layer="svg877" />
  <!-- Exported by Scratch - http://scratch.mit.edu/ -->
  <g
     id="ID0.7862224709242582"
     transform="matrix(0.94999999,0,0,0.94999999,4.0001627,1.469419)">
    <g
       id="Back_Wing">
      <path
         id="Outer_1_"
         d="m 127.99,98.015 c -0.04,-12.507 14.096,-34.787 23.849,-44.198 2.262,-2.181 4.042,-7.096 3.409,-16.196 -0.283,-4.049 -1.092,-8.288 -2.985,-12.796 0,0 -0.834,-4.127 -5.409,-11.547 -7.946,-12.881 -33.181,-22.585 -29.156,4.853 1.204,8.215 5.503,16.614 8.062,20.082 -1.646,-0.808 -9.817,-5.424 -13.07,-1.365 -4.161,5.194 11.616,17.001 11.616,17.001 -4.129,-1.627 -9.709,-2.738 -11.378,0.555 -2.34,4.623 5.717,11.542 5.717,11.542 -2.405,0.207 -6.668,0.071 -7.454,2.41 -0.786,2.339 2.683,7.238 4.244,8.587 -4.485,0.502 -6.739,2.489 -6.764,4.447 -0.218,2.082 2.874,6.231 7.643,9.295 -2.715,5.16 0.213,10.823 2.583,12.029 2.269,1.156 4.47,0.937 6.649,-0.359 1.028,-0.602 2.453,-1.831 2.444,-4.34 z"
         inkscape:connector-curvature="0"
         style="fill:#279afa" />
      <path
         id="Inner_2_"
         d="m 127.99,98.015 c -0.04,-12.507 14.096,-34.787 23.849,-44.198 2.262,-2.181 4.042,-7.096 3.409,-16.196 -0.283,-4.049 -1.092,-8.288 -2.985,-12.796 -2.765,-6.704 -14.283,-19.546 -21.868,-17.708 -13.503,3.273 5.023,36.941 5.023,36.941 -26.906,-7.838 -2.886,13.636 -2.886,13.636 -24.408,-4.544 -6.401,11.039 -6.401,11.039 -16.837,-0.455 -3.31,11.165 -3.31,11.165 -14.275,0.608 -6.507,10.788 -6.507,10.788 -2.715,5.16 0.213,10.823 2.583,12.029 2.269,1.156 4.47,0.937 6.649,-0.359 1.028,-0.603 2.453,-1.832 2.444,-4.341 z"
         inkscape:connector-curvature="0"
         style="fill:#0043a5" />
    </g>
    <path
       id="Back_Foot"
       d="m 130.686,121.31 c 2.035,-3.524 4.691,-5.063 8.737,-5.56 1.737,-0.199 2.978,-0.149 4.368,0.894 1.266,0.943 -0.491,3.497 -6.174,4.491 6.109,0.568 9.351,1.267 9.847,3.65 0.373,1.861 -2.283,2.854 -4.169,2.581 -4.293,-0.62 -8.985,-2.283 -11.02,1.589 -0.521,0.993 -0.745,1.96 -1.787,2.283 -1.142,0.348 -2.532,-0.372 -2.681,-1.588 -0.248,-2.16 0.949,-3.49 0.397,-5.56 -0.198,-0.745 -8.339,-3.872 -11.665,-5.212 1.638,-0.397 3.797,-1.812 5.411,-2.284 1.092,-0.323 6.006,2.333 8.736,4.716 z"
       inkscape:connector-curvature="0"
       style="fill:#ffa600" />
    <g
       id="Body">
      <path
         id="Body_1_"
         d="m 138.129,96.332 c 0.157,-0.934 0.418,-1.913 0.785,-2.952 2.131,-6.038 6.535,-9.625 12.644,-11.649 0.948,-0.314 1.938,-0.605 2.951,-0.864 4.486,-1.146 9.451,-1.582 13.558,0.184 -0.668,-0.813 -1.466,-1.629 -2.444,-2.445 C 152.534,67.682 136.428,73.208 121.866,82.3 110.714,89.261 82.369,108.442 74.698,107.021 49.534,88.461 40.603,91.392 38.615,95.37 c -1.847,3.765 2.415,7.956 5.825,10.513 -6.128,1.047 -9.68,0.621 -10.087,4.831 -0.374,3.859 5.114,4.404 8.95,5.398 -3.41,1.42 -6.307,3.668 -4.991,6.445 1.279,2.7 7.814,3.268 11.792,2.131 -2.131,3.978 -5.114,13.212 4.139,9.893 8.592,-3.083 13.496,-7.813 20.742,-13.638 11.223,11.649 27.845,16.906 35.943,13.78 14.174,-5.47 22.61,-18.465 27.513,-33.243 -0.505,-1.619 -0.624,-3.293 -0.312,-5.148 z"
         inkscape:connector-curvature="0"
         style="fill:#ff0600" />
      <path
         id="Eye_Spot"
         d="m 151.558,81.73 c 0.948,-0.314 1.938,-0.605 2.951,-0.864 -5.875,-4.838 -13.858,-4.009 -21.212,-0.706 -4.639,2.088 -7.823,7.101 -4.93,10.966 3.486,4.658 7.887,5.578 9.763,5.206 0.157,-0.934 0.418,-1.913 0.785,-2.952 2.13,-6.039 6.534,-9.626 12.643,-11.65 z"
         inkscape:connector-curvature="0"
         style="fill:#0043a5" />
      <path
         id="Beak"
         d="m 169.885,82.014 c -0.583,-0.378 -1.191,-0.695 -1.818,-0.965 -4.107,-1.766 -9.072,-1.33 -13.558,-0.184 -1.012,0.259 -2.003,0.55 -2.951,0.864 -6.109,2.024 -10.513,5.611 -12.644,11.649 -0.366,1.039 -0.627,2.018 -0.785,2.952 -0.312,1.855 -0.193,3.529 0.311,5.147 0.596,1.912 1.738,3.743 3.458,5.682 3.872,4.369 10.778,6.765 15.467,3.036 -3.907,-1.279 -5.877,-5.202 -5.38,-9.287 11.915,-4.068 20.581,14.543 23.157,26.424 C 188.522,98 169.885,82.014 169.885,82.014 Z"
         inkscape:connector-curvature="0"
         style="fill:#ffa600" />
    </g>
    <path
       id="Front_Foot"
       d="m 125.14,136.018 c 3.666,-4.525 7.764,-6.106 13.593,-5.902 2.5,0.108 5.366,1.081 5.846,3.521 0.866,4.405 -9.661,1.989 -11.792,4.12 7.813,-0.995 15.121,3.45 15.289,6.928 0.109,2.714 -3.866,3.523 -6.471,2.715 -5.93,-1.838 -12.188,-5.238 -15.931,-0.222 -0.959,1.287 -1.492,2.605 -3.037,2.827 -1.691,0.236 -3.495,-1.093 -3.433,-2.845 0.133,-3.107 2.825,-4.878 1.806,-7.769 -1.578,-4.476 -9.959,-7.175 -15.321,-9.978 2.404,-0.194 6.071,-1.459 7.92,-3.164 1.987,0.71 8.205,5.791 11.531,9.769 z"
       inkscape:connector-curvature="0"
       style="fill:#ffa600" />
    <g
       id="Eye">
      <path
         id="White"
         d="m 148.317,83.162 c 4.713,5.285 -3.228,13.114 -10.224,7.915 -2.731,-2.03 -2.284,-5.958 -0.742,-7.712 2.52,-2.868 8.17,-3.34 10.966,-0.203 z"
         inkscape:connector-curvature="0"
         style="fill:#ffffff" />
      <path
         id="Pupil"
         d="m 146.605,86.058 c 0.624,0 1.189,0.228 1.598,0.596 0.409,0.368 0.662,0.876 0.662,1.437 0,0.561 -0.253,1.069 -0.662,1.437 -0.409,0.368 -0.974,0.596 -1.598,0.596 -0.624,0 -1.189,-0.228 -1.598,-0.596 -0.409,-0.368 -0.662,-0.876 -0.662,-1.437 0,-0.561 0.253,-1.069 0.662,-1.437 0.409,-0.368 0.974,-0.596 1.598,-0.596 z"
         inkscape:connector-curvature="0"
         style="fill:#272525" />
    </g>
    <g
       id="Front_Wing">
      <path
         id="Outer"
         d="M 118.917,92.534 C 103.965,84.429 86.591,53.037 81.718,35.264 80.588,31.144 75.885,25.815 64.612,20.641 59.595,18.338 54.01,16.541 47.396,15.863 c 0,0 -5.469,-1.696 -17.306,-1.071 -20.55,1.086 -48.579,24.875 -13.212,37.957 10.588,3.917 23.414,4.261 29.221,3.468 -2.037,1.438 -12.872,8.181 -10.148,14.708 3.486,8.353 27.859,-2.781 27.859,-2.781 -4.634,3.867 -9.596,9.802 -6.753,13.94 3.99,5.806 17.5,0.702 17.5,0.702 -1.321,3.005 -4.262,8.003 -1.983,10.466 2.279,2.462 10.386,1.515 13.015,0.533 -2.324,5.68 -1.423,9.664 0.897,10.969 2.343,1.618 9.311,0.632 16.074,-3.06 4.389,6.604 13.055,6.799 16.039,4.757 2.859,-1.953 4.031,-4.724 3.907,-8.169 -0.05,-1.621 -0.589,-4.121 -3.589,-5.748 z"
         inkscape:connector-curvature="0"
         style="fill:#279afa" />
      <path
         id="Inner_1_"
         d="M 118.917,92.534 C 103.965,84.429 86.591,53.037 81.718,35.264 80.588,31.144 75.885,25.815 64.612,20.641 59.595,18.338 54.01,16.541 47.396,15.863 37.594,14.792 14.76,20.167 12.01,30.417 7.116,48.664 59.37,48.5 59.37,48.5 c -26.892,27 14.392,12.333 14.392,12.333 -21.333,26.167 9,14.833 9,14.833 -11.518,19.798 11.166,11.229 11.166,11.229 -8.578,17.43 8.632,14.797 8.632,14.797 4.389,6.604 13.055,6.799 16.039,4.757 2.859,-1.953 4.031,-4.724 3.907,-8.169 -0.05,-1.619 -0.589,-4.119 -3.589,-5.746 z"
         inkscape:connector-curvature="0"
         style="fill:#0043a5" />
    </g>
  </g>
</svg>

<svg version="1.1" width="180" height="151" xmlns="http://www.w3.org/2000/svg" xmlns:xlink="http://www.w3.org/1999/xlink">
  <!-- Exported by Scratch - http://scratch.mit.edu/ -->
  <g id="ID0.7862224709242582" transform="matrix(0.949999988079071, 0, 0, 0.949999988079071, 0.4, -0.25)">
    <g id="Back_Wing">
      <path id="Outer_1_" fill="#279AFA" d="M 127.990 98.015 C 127.950 85.508 142.086 63.228 151.839 53.817 C 154.101 51.636 155.881 46.721 155.248 37.621 C 154.965 33.572 154.156 29.333 152.263 24.825 C 152.263 24.825 151.429 20.698 146.854 13.278 C 138.908 0.397 113.673 -9.307 117.698 18.131 C 118.902 26.346 123.201 34.745 125.760 38.213 C 124.114 37.405 115.943 32.789 112.690 36.848 C 108.529 42.042 124.306 53.849 124.306 53.849 C 120.177 52.222 114.597 51.111 112.928 54.404 C 110.588 59.027 118.645 65.946 118.645 65.946 C 116.240 66.153 111.977 66.017 111.191 68.356 C 110.405 70.695 113.874 75.594 115.435 76.943 C 110.950 77.445 108.696 79.432 108.671 81.390 C 108.453 83.472 111.545 87.621 116.314 90.685 C 113.599 95.845 116.527 101.508 118.897 102.714 C 121.166 103.870 123.367 103.651 125.546 102.355 C 126.574 101.753 127.999 100.524 127.990 98.015 L 127.990 98.015 Z "/>
      <path id="Inner_2_" fill="#0043A5" d="M 127.990 98.015 C 127.950 85.508 142.086 63.228 151.839 53.817 C 154.101 51.636 155.881 46.721 155.248 37.621 C 154.965 33.572 154.156 29.333 152.263 24.825 C 149.498 18.121 137.980 5.279 130.395 7.117 C 116.892 10.390 135.418 44.058 135.418 44.058 C 108.512 36.220 132.532 57.694 132.532 57.694 C 108.124 53.150 126.131 68.733 126.131 68.733 C 109.294 68.278 122.821 79.898 122.821 79.898 C 108.546 80.506 116.314 90.686 116.314 90.686 C 113.599 95.846 116.527 101.509 118.897 102.715 C 121.166 103.871 123.367 103.652 125.546 102.356 C 126.574 101.753 127.999 100.524 127.990 98.015 L 127.990 98.015 Z "/>
    </g>
    <path id="Back_Foot" fill="#FFA600" d="M 130.686 121.310 C 132.721 117.786 135.377 116.247 139.423 115.750 C 141.160 115.551 142.401 115.601 143.791 116.644 C 145.057 117.587 143.300 120.141 137.617 121.135 C 143.726 121.703 146.968 122.402 147.464 124.785 C 147.837 126.646 145.181 127.639 143.295 127.366 C 139.002 126.746 134.310 125.083 132.275 128.955 C 131.754 129.948 131.530 130.915 130.488 131.238 C 129.346 131.586 127.956 130.866 127.807 129.650 C 127.559 127.490 128.756 126.160 128.204 124.090 C 128.006 123.345 119.865 120.218 116.539 118.878 C 118.177 118.481 120.336 117.066 121.950 116.594 C 123.042 116.271 127.956 118.927 130.686 121.310 L 130.686 121.310 Z "/>
    <g id="Body">
      <path id="Body_1_" fill="#FF0600" d="M 138.129 96.332 C 138.286 95.398 138.547 94.419 138.914 93.380 C 141.045 87.342 145.449 83.755 151.558 81.731 C 152.506 81.417 153.496 81.126 154.509 80.867 C 158.995 79.721 163.960 79.285 168.067 81.051 C 167.399 80.238 166.601 79.422 165.623 78.606 C 152.534 67.682 136.428 73.208 121.866 82.300 C 110.714 89.261 82.369 108.442 74.698 107.021 C 49.534 88.461 40.603 91.392 38.615 95.370 C 36.768 99.135 41.030 103.326 44.440 105.883 C 38.312 106.930 34.760 106.504 34.353 110.714 C 33.979 114.573 39.467 115.118 43.303 116.112 C 39.893 117.532 36.996 119.780 38.312 122.557 C 39.591 125.257 46.126 125.825 50.104 124.688 C 47.973 128.666 44.990 137.900 54.243 134.581 C 62.835 131.498 67.739 126.768 74.985 120.943 C 86.208 132.592 102.830 137.849 110.928 134.723 C 125.102 129.253 133.538 116.258 138.441 101.480 C 137.936 99.861 137.817 98.187 138.129 96.332 L 138.129 96.332 Z "/>
      <path id="Eye_Spot" fill="#0043A5" d="M 151.558 81.730 C 152.506 81.416 153.496 81.125 154.509 80.866 C 148.634 76.028 140.651 76.857 133.297 80.160 C 128.658 82.248 125.474 87.261 128.367 91.126 C 131.853 95.784 136.254 96.704 138.130 96.332 C 138.287 95.398 138.548 94.419 138.915 93.380 C 141.045 87.341 145.449 83.754 151.558 81.730 L 151.558 81.730 Z "/>
      <path id="Beak" fill="#FFA600" d="M 169.885 82.014 C 169.302 81.636 168.694 81.319 168.067 81.049 C 163.960 79.283 158.995 79.719 154.509 80.865 C 153.497 81.124 152.506 81.415 151.558 81.729 C 145.449 83.753 141.045 87.340 138.914 93.378 C 138.548 94.417 138.287 95.396 138.129 96.330 C 137.817 98.185 137.936 99.859 138.440 101.477 C 139.036 103.389 140.178 105.220 141.898 107.159 C 145.770 111.528 152.676 113.924 157.365 110.195 C 153.458 108.916 151.488 104.993 151.985 100.908 C 163.900 96.840 172.566 115.451 175.142 127.332 C 188.522 98 169.885 82.014 169.885 82.014 L 169.885 82.014 Z "/>
    </g>
    <path id="Front_Foot" fill="#FFA600" d="M 125.140 136.018 C 128.806 131.493 132.904 129.912 138.733 130.116 C 141.233 130.224 144.099 131.197 144.579 133.637 C 145.445 138.042 134.918 135.626 132.787 137.757 C 140.600 136.762 147.908 141.207 148.076 144.685 C 148.185 147.399 144.210 148.208 141.605 147.400 C 135.675 145.562 129.417 142.162 125.674 147.178 C 124.715 148.465 124.182 149.783 122.637 150.005 C 120.946 150.241 119.142 148.912 119.204 147.160 C 119.337 144.053 122.029 142.282 121.010 139.391 C 119.432 134.915 111.051 132.216 105.689 129.413 C 108.093 129.219 111.760 127.954 113.609 126.249 C 115.596 126.959 121.814 132.040 125.140 136.018 L 125.140 136.018 Z "/>
    <g id="Eye">
      <path id="White" fill="#FFFFFF" d="M 148.317 83.162 C 153.030 88.447 145.089 96.276 138.093 91.077 C 135.362 89.047 135.809 85.119 137.351 83.365 C 139.871 80.497 145.521 80.025 148.317 83.162 L 148.317 83.162 Z "/>
      <path id="Pupil" fill="#272525" d="M 146.605 86.058 C 147.229 86.058 147.794 86.286 148.203 86.654 C 148.612 87.022 148.865 87.530 148.865 88.091 C 148.865 88.652 148.612 89.160 148.203 89.528 C 147.794 89.896 147.229 90.124 146.605 90.124 C 145.981 90.124 145.416 89.896 145.007 89.528 C 144.598 89.160 144.345 88.652 144.345 88.091 C 144.345 87.530 144.598 87.022 145.007 86.654 C 145.416 86.286 145.981 86.058 146.605 86.058 Z "/>
    </g>
    <g id="Front_Wing">
      <path id="Outer" fill="#279AFA" d="M 118.917 92.534 C 103.965 84.429 86.591 53.037 81.718 35.264 C 80.588 31.144 75.885 25.815 64.612 20.641 C 59.595 18.338 54.010 16.541 47.396 15.863 C 47.396 15.863 41.927 14.167 30.090 14.792 C 9.540 15.878 -18.489 39.667 16.878 52.749 C 27.466 56.666 40.292 57.010 46.099 56.217 C 44.062 57.655 33.227 64.398 35.951 70.925 C 39.437 79.278 63.810 68.144 63.810 68.144 C 59.176 72.011 54.214 77.946 57.057 82.084 C 61.047 87.890 74.557 82.786 74.557 82.786 C 73.236 85.791 70.295 90.789 72.574 93.252 C 74.853 95.714 82.960 94.767 85.589 93.785 C 83.265 99.465 84.166 103.449 86.486 104.754 C 88.829 106.372 95.797 105.386 102.560 101.694 C 106.949 108.298 115.615 108.493 118.599 106.451 C 121.458 104.498 122.630 101.727 122.506 98.282 C 122.456 96.661 121.917 94.161 118.917 92.534 L 118.917 92.534 Z "/>
      <path id="Inner_1_" fill="#0043A5" d="M 118.917 92.534 C 103.965 84.429 86.591 53.037 81.718 35.264 C 80.588 31.144 75.885 25.815 64.612 20.641 C 59.595 18.338 54.010 16.541 47.396 15.863 C 37.594 14.792 14.760 20.167 12.010 30.417 C 7.116 48.664 59.370 48.500 59.370 48.500 C 32.478 75.500 73.762 60.833 73.762 60.833 C 52.429 87 82.762 75.666 82.762 75.666 C 71.244 95.464 93.928 86.895 93.928 86.895 C 85.350 104.325 102.560 101.692 102.560 101.692 C 106.949 108.296 115.615 108.491 118.599 106.449 C 121.458 104.496 122.630 101.725 122.506 98.280 C 122.456 96.661 121.917 94.161 118.917 92.534 L 118.917 92.534 Z "/>
    </g>
  </g>
</svg>
